X:169
T: AUS ENGLAND KAM EIN BETTLER HERAUS
N: Z0168
O: Europa, Mitteleuropa, Deutschland, Nord - Deutschland
R: Erzaehlung, lustige Romanze
M: 4/4
L: 1/8
K: F
FA | c2AAABcd | cBGGG2
AB | dcBAcBAG | d2c2A2
FA | c2AAGBcd | cBGGG2
AB | BAAAABcd | cBGGG2
AB | dcBAcBAG | F2c2A2

